svg/color/ika.svg

<?xml version="1.0" encoding="UTF-8" ?>
<!DOCTYPE svg PUBLIC "-//W3C//DTD SVG 1.1//EN" "http://www.w3.org/Graphics/SVG/1.1/DTD/svg11.dtd">
<svg width="250pt" height="250pt" viewBox="0 0 250 250" version="1.1" xmlns="http://www.w3.org/2000/svg">
<g id="#ffffffff">
<path fill="#ffffff" opacity="1.00" d=" M 0.00 0.00 L 250.00 0.00 L 250.00 250.00 L 0.00 250.00 L 0.00 0.00 M 111.16 6.96 C 94.99 8.79 79.13 13.79 65.00 21.90 C 41.94 34.92 23.54 55.90 13.62 80.46 C 2.14 108.02 2.08 139.92 12.57 167.79 C 20.71 189.87 35.79 209.25 54.96 222.86 C 75.98 238.03 102.19 245.74 128.07 244.67 C 155.99 244.03 183.45 232.77 204.04 213.95 C 223.96 196.09 237.62 171.34 241.84 144.89 C 245.83 120.06 241.84 93.93 230.36 71.52 C 217.64 46.39 195.71 26.05 169.63 15.38 C 151.28 7.63 130.94 4.86 111.16 6.96 Z" />
</g>
<g id="#020202ff">
<path fill="#020202" opacity="1.00" d=" M 111.16 6.96 C 130.94 4.86 151.28 7.63 169.63 15.38 C 195.71 26.05 217.64 46.39 230.36 71.52 C 241.84 93.93 245.83 120.06 241.84 144.89 C 237.62 171.34 223.96 196.09 204.04 213.95 C 183.45 232.77 155.99 244.03 128.07 244.67 C 102.19 245.74 75.98 238.03 54.96 222.86 C 35.79 209.25 20.71 189.87 12.57 167.79 C 2.08 139.92 2.14 108.02 13.62 80.46 C 23.54 55.90 41.94 34.92 65.00 21.90 C 79.13 13.79 94.99 8.79 111.16 6.96 M 115.94 20.88 C 92.11 22.77 69.02 33.12 51.96 49.89 C 35.00 65.96 23.74 87.90 20.62 111.06 C 17.60 133.84 21.88 157.68 33.41 177.63 C 43.49 195.20 58.83 209.68 76.75 219.07 C 99.01 230.44 125.37 233.66 149.66 227.60 C 170.79 222.60 190.16 210.67 204.29 194.19 C 221.10 175.06 230.47 149.48 229.75 124.00 C 229.74 107.73 225.50 91.56 218.09 77.11 C 208.63 58.76 193.47 43.63 175.55 33.48 C 157.47 23.59 136.49 19.05 115.94 20.88 Z" />
<path fill="#020202" opacity="1.00" d=" M 72.06 155.95 C 87.83 138.91 103.75 122.01 119.43 104.90 C 119.70 115.90 120.16 126.88 120.53 137.88 C 115.48 143.70 109.88 149.01 104.88 154.87 C 110.46 160.06 116.10 165.19 121.67 170.40 C 121.84 181.35 122.65 192.28 122.78 203.23 C 105.95 187.39 89.05 171.62 72.06 155.95 Z" />
<path fill="#020202" opacity="1.00" d=" M 127.53 105.32 C 143.44 122.00 159.20 138.81 175.32 155.29 C 158.88 171.65 141.74 187.31 125.17 203.55 C 125.23 192.65 125.75 181.76 125.83 170.86 C 131.39 165.51 136.82 160.03 142.53 154.84 C 137.28 149.24 131.88 143.78 126.64 138.18 C 126.98 127.23 127.27 116.27 127.53 105.32 Z" />
</g>
<g id="#fdde5aff">
<path fill="#fdde5a" opacity="1.00" d=" M 115.94 20.88 C 136.49 19.05 157.47 23.59 175.55 33.48 C 193.47 43.63 208.63 58.76 218.09 77.11 C 225.50 91.56 229.74 107.73 229.75 124.00 C 230.47 149.48 221.10 175.06 204.29 194.19 C 190.16 210.67 170.79 222.60 149.66 227.60 C 125.37 233.66 99.01 230.44 76.75 219.07 C 58.83 209.68 43.49 195.20 33.41 177.63 C 21.88 157.68 17.60 133.84 20.62 111.06 C 23.74 87.90 35.00 65.96 51.96 49.89 C 69.02 33.12 92.11 22.77 115.94 20.88 M 89.34 33.06 C 83.57 36.18 77.21 38.22 71.86 42.09 C 54.82 53.23 40.94 69.40 33.05 88.21 C 30.50 95.31 28.15 102.51 26.80 109.95 C 26.21 114.28 26.65 118.68 26.15 123.03 C 25.42 128.70 26.55 134.38 26.65 140.06 C 27.88 147.49 30.87 154.50 32.53 161.83 C 36.13 168.04 38.94 174.69 42.58 180.89 C 51.91 192.55 62.25 203.90 75.48 211.22 C 82.30 215.78 90.42 217.66 97.80 221.09 C 104.58 221.94 111.13 224.22 117.99 224.39 C 122.99 224.52 128.00 224.36 133.00 224.38 C 141.77 224.48 149.81 220.51 158.22 218.65 C 162.89 216.85 167.30 214.43 171.84 212.34 C 178.84 208.45 185.26 203.57 191.45 198.51 C 197.19 193.29 201.91 187.07 206.70 181.01 C 215.43 166.72 221.99 150.78 223.46 133.98 C 223.62 122.67 224.06 111.01 220.06 100.22 C 214.50 76.26 198.20 55.87 178.08 42.25 C 171.57 38.28 164.70 34.93 157.62 32.13 C 155.00 31.46 152.31 31.03 149.81 29.95 C 145.45 28.02 140.61 27.94 135.96 27.25 C 129.37 26.17 122.63 26.39 115.99 26.75 C 106.93 28.00 98.07 30.45 89.34 33.06 Z" />
<path fill="#fdde5a" opacity="1.00" d=" M 128.86 58.14 C 135.45 63.58 141.13 70.03 147.16 76.08 C 157.43 86.88 167.54 97.85 178.14 108.35 C 182.08 113.30 186.75 117.59 191.15 122.12 C 194.33 125.28 197.80 128.24 200.04 132.19 C 199.60 132.30 198.73 132.51 198.30 132.62 C 194.69 138.07 188.45 141.23 185.65 147.30 C 184.37 147.27 183.09 147.25 181.82 147.22 C 181.65 146.38 181.49 145.55 181.32 144.72 C 179.36 143.23 177.49 141.62 175.94 139.70 C 175.31 138.07 173.57 138.75 172.43 139.13 C 173.65 134.88 169.11 133.56 167.16 130.64 C 162.14 124.41 155.61 119.51 150.76 113.15 C 147.44 109.19 143.13 106.20 139.85 102.20 C 136.87 98.73 133.59 95.53 130.27 92.39 C 127.19 89.96 127.54 85.54 127.55 82.04 C 127.97 74.08 126.83 65.96 128.86 58.14 Z" />
<path fill="#fdde5a" opacity="1.00" d=" M 113.93 59.58 C 114.82 59.52 116.61 59.41 117.50 59.35 C 119.30 69.45 118.25 79.80 118.46 90.01 C 116.39 91.75 114.43 93.63 112.73 95.75 C 109.17 100.16 104.94 103.97 101.00 108.03 C 96.94 112.00 93.63 116.64 89.74 120.75 C 81.86 128.55 74.20 136.60 67.08 145.11 C 65.87 146.93 63.52 146.45 61.66 146.71 C 57.43 142.32 53.14 137.99 48.54 134.00 C 48.53 132.64 48.52 131.28 48.52 129.92 C 53.92 125.87 57.50 120.04 62.46 115.54 C 66.12 112.15 68.86 107.91 72.54 104.54 C 78.77 98.76 83.71 91.75 89.98 86.00 C 96.87 79.50 102.46 71.75 109.49 65.39 C 111.35 63.77 112.73 61.72 113.93 59.58 Z" />
</g>
<g id="#d9d9d9ff">
<path fill="#d9d9d9" opacity="1.00" d=" M 89.34 33.06 C 98.07 30.45 106.93 28.00 115.99 26.75 C 122.63 26.39 129.37 26.17 135.96 27.25 C 140.61 27.94 145.45 28.02 149.81 29.95 C 152.31 31.03 155.00 31.46 157.62 32.13 C 164.70 34.93 171.57 38.28 178.08 42.25 C 198.20 55.87 214.50 76.26 220.06 100.22 C 224.06 111.01 223.62 122.67 223.46 133.98 C 221.99 150.78 215.43 166.72 206.70 181.01 C 201.91 187.07 197.19 193.29 191.45 198.51 C 185.26 203.57 178.84 208.45 171.84 212.34 C 167.30 214.43 162.89 216.85 158.22 218.65 C 149.81 220.51 141.77 224.48 133.00 224.38 C 128.00 224.36 122.99 224.52 117.99 224.39 C 111.13 224.22 104.58 221.94 97.80 221.09 C 90.42 217.66 82.30 215.78 75.48 211.22 C 62.25 203.90 51.91 192.55 42.58 180.89 C 38.94 174.69 36.13 168.04 32.53 161.83 C 30.87 154.50 27.88 147.49 26.65 140.06 C 26.55 134.38 25.42 128.70 26.15 123.03 C 26.65 118.68 26.21 114.28 26.80 109.95 C 28.15 102.51 30.50 95.31 33.05 88.21 C 40.94 69.40 54.82 53.23 71.86 42.09 C 77.21 38.22 83.57 36.18 89.34 33.06 M 128.86 58.14 C 126.83 65.96 127.97 74.08 127.55 82.04 C 127.54 85.54 127.19 89.96 130.27 92.39 C 133.59 95.53 136.87 98.73 139.85 102.20 C 143.13 106.20 147.44 109.19 150.76 113.15 C 155.61 119.51 162.14 124.41 167.16 130.64 C 169.11 133.56 173.65 134.88 172.43 139.13 C 173.57 138.75 175.31 138.07 175.94 139.70 C 177.49 141.62 179.36 143.23 181.32 144.72 C 181.49 145.55 181.65 146.38 181.82 147.22 C 183.09 147.25 184.37 147.27 185.65 147.30 C 188.45 141.23 194.69 138.07 198.30 132.62 C 198.73 132.51 199.60 132.30 200.04 132.19 C 197.80 128.24 194.33 125.28 191.15 122.12 C 186.75 117.59 182.08 113.30 178.14 108.35 C 167.54 97.85 157.43 86.88 147.16 76.08 C 141.13 70.03 135.45 63.58 128.86 58.14 M 113.93 59.58 C 112.73 61.72 111.35 63.77 109.49 65.39 C 102.46 71.75 96.87 79.50 89.98 86.00 C 83.71 91.75 78.77 98.76 72.54 104.54 C 68.86 107.91 66.12 112.15 62.46 115.54 C 57.50 120.04 53.92 125.87 48.52 129.92 C 48.52 131.28 48.53 132.64 48.54 134.00 C 53.14 137.99 57.43 142.32 61.66 146.71 C 63.52 146.45 65.87 146.93 67.08 145.11 C 74.20 136.60 81.86 128.55 89.74 120.75 C 93.63 116.64 96.94 112.00 101.00 108.03 C 104.94 103.97 109.17 100.16 112.73 95.75 C 114.43 93.63 116.39 91.75 118.46 90.01 C 118.25 79.80 119.30 69.45 117.50 59.35 C 116.61 59.41 114.82 59.52 113.93 59.58 M 72.06 155.95 C 89.05 171.62 105.95 187.39 122.78 203.23 C 122.65 192.28 121.84 181.35 121.67 170.40 C 116.10 165.19 110.46 160.06 104.88 154.87 C 109.88 149.01 115.48 143.70 120.53 137.88 C 120.16 126.88 119.70 115.90 119.43 104.90 C 103.75 122.01 87.83 138.91 72.06 155.95 M 127.53 105.32 C 127.27 116.27 126.98 127.23 126.64 138.18 C 131.88 143.78 137.28 149.24 142.53 154.84 C 136.82 160.03 131.39 165.51 125.83 170.86 C 125.75 181.76 125.23 192.65 125.17 203.55 C 141.74 187.31 158.88 171.65 175.32 155.29 C 159.20 138.81 143.44 122.00 127.53 105.32 Z" />
</g>
</svg>

<?xml version="1.0" encoding="utf-8"?>
<!-- Generator: Adobe Illustrator 26.0.3, SVG Export Plug-In . SVG Version: 6.00 Build 0)  -->
<svg version="1.1" id="Layer_1" xmlns="http://www.w3.org/2000/svg" xmlns:xlink="http://www.w3.org/1999/xlink" x="0px" y="0px"
	 viewBox="0 0 250 250" style="enable-background:new 0 0 250 250;" xml:space="preserve">
<style type="text/css">
	.st0{fill:#020202;}
	.st1{fill:#FDDE5A;}
	.st2{fill:#D9D9D9;}
</style>
<g id="_x23_020202ff">
	<path class="st0" d="M111.2,7c19.8-2.1,40.1,0.7,58.5,8.4c26.1,10.7,48,31,60.7,56.1c11.5,22.4,15.5,48.5,11.5,73.4
		c-4.2,26.4-17.9,51.2-37.8,69.1c-20.6,18.8-48,30.1-76,30.7C102.2,245.7,76,238,55,222.9c-19.2-13.6-34.2-33-42.4-55.1
		C2.1,139.9,2.1,108,13.6,80.5C23.5,55.9,41.9,34.9,65,21.9C79.1,13.8,95,8.8,111.2,7 M115.9,20.9c-23.8,1.9-46.9,12.2-64,29
		c-17,16.1-28.2,38-31.3,61.2c-3,22.8,1.3,46.6,12.8,66.6c10.1,17.6,25.4,32,43.3,41.4c22.3,11.4,48.6,14.6,72.9,8.5
		c21.1-5,40.5-16.9,54.6-33.4c16.8-19.1,26.2-44.7,25.5-70.2c0-16.3-4.2-32.4-11.7-46.9c-9.5-18.4-24.6-33.5-42.5-43.6
		C157.5,23.6,136.5,19,115.9,20.9z"/>
	<path class="st0" d="M72.1,155.9c15.8-17,31.7-33.9,47.4-51c0.3,11,0.7,22,1.1,33c-5,5.8-10.7,11.1-15.7,17
		c5.6,5.2,11.2,10.3,16.8,15.5c0.2,11,1,21.9,1.1,32.8C105.9,187.4,89.1,171.6,72.1,155.9z"/>
	<path class="st0" d="M127.5,105.3c15.9,16.7,31.7,33.5,47.8,50c-16.4,16.4-33.6,32-50.2,48.3c0.1-10.9,0.6-21.8,0.7-32.7
		c5.6-5.4,11-10.8,16.7-16c-5.2-5.6-10.6-11.1-15.9-16.7C127,127.2,127.3,116.3,127.5,105.3z"/>
</g>
<g id="_x23_fdde5aff">
	<path class="st1" d="M115.9,20.9c20.6-1.8,41.5,2.7,59.6,12.6c17.9,10.2,33.1,25.3,42.5,43.6c7.4,14.4,11.7,30.6,11.7,46.9
		c0.7,25.5-8.6,51.1-25.5,70.2c-14.1,16.5-33.5,28.4-54.6,33.4c-24.3,6.1-50.7,2.8-72.9-8.5c-17.9-9.4-33.3-23.9-43.3-41.4
		c-11.5-20-15.8-43.8-12.8-66.6C23.7,87.9,35,66,52,49.9C69,33.1,92.1,22.8,115.9,20.9 M89.3,33.1c-5.8,3.1-12.1,5.2-17.5,9
		C54.8,53.2,40.9,69.4,33,88.2c-2.5,7.1-4.9,14.3-6.2,21.7c-0.6,4.3-0.1,8.7-0.6,13.1c-0.7,5.7,0.4,11.4,0.5,17
		c1.2,7.4,4.2,14.4,5.9,21.8c3.6,6.2,6.4,12.9,10.1,19.1c9.3,11.7,19.7,23,32.9,30.3c6.8,4.6,14.9,6.4,22.3,9.9
		c6.8,0.9,13.3,3.1,20.2,3.3c5,0.1,10,0,15,0c8.8,0.1,16.8-3.9,25.2-5.7c4.7-1.8,9.1-4.2,13.6-6.3c7-3.9,13.4-8.8,19.6-13.8
		c5.7-5.2,10.5-11.4,15.2-17.5c8.7-14.3,15.3-30.2,16.8-47c0.2-11.3,0.6-23-3.4-33.8c-5.6-24-21.9-44.4-42-58
		c-6.5-4-13.4-7.3-20.5-10.1c-2.6-0.7-5.3-1.1-7.8-2.2c-4.4-1.9-9.2-2-13.8-2.7c-6.6-1.1-13.3-0.9-20-0.5
		C106.9,28,98.1,30.5,89.3,33.1z"/>
	<path class="st1" d="M128.9,58.1c6.6,5.4,12.3,11.9,18.3,17.9c10.3,10.8,20.4,21.8,31,32.3c3.9,5,8.6,9.2,13,13.8
		c3.2,3.2,6.7,6.1,8.9,10.1c-0.4,0.1-1.3,0.3-1.7,0.4c-3.6,5.5-9.9,8.6-12.7,14.7c-1.3,0-2.6-0.1-3.8-0.1c-0.2-0.8-0.3-1.7-0.5-2.5
		c-2-1.5-3.8-3.1-5.4-5c-0.6-1.6-2.4-0.9-3.5-0.6c1.2-4.2-3.3-5.6-5.3-8.5c-5-6.2-11.6-11.1-16.4-17.5c-3.3-4-7.6-7-10.9-11
		c-3-3.5-6.3-6.7-9.6-9.8c-3.1-2.4-2.7-6.8-2.7-10.3C128,74.1,126.8,66,128.9,58.1z"/>
	<path class="st1" d="M113.9,59.6c0.9-0.1,2.7-0.2,3.6-0.2c1.8,10.1,0.8,20.5,1,30.7c-2.1,1.7-4,3.6-5.7,5.7
		c-3.6,4.4-7.8,8.2-11.7,12.3c-4.1,4-7.4,8.6-11.3,12.7c-7.9,7.8-15.5,15.9-22.7,24.4c-1.2,1.8-3.6,1.3-5.4,1.6
		c-4.2-4.4-8.5-8.7-13.1-12.7c0-1.4,0-2.7,0-4.1c5.4-4,9-9.9,13.9-14.4c3.7-3.4,6.4-7.6,10.1-11C78.8,98.8,83.7,91.8,90,86
		c6.9-6.5,12.5-14.2,19.5-20.6C111.3,63.8,112.7,61.7,113.9,59.6z"/>
</g>
<g id="_x23_d9d9d9ff">
	<path class="st2" d="M89.3,33.1c8.7-2.6,17.6-5.1,26.7-6.3c6.6-0.4,13.4-0.6,20,0.5c4.6,0.7,9.5,0.8,13.8,2.7
		c2.5,1.1,5.2,1.5,7.8,2.2c7.1,2.8,14,6.1,20.5,10.1c20.1,13.6,36.4,34,42,58c4,10.8,3.6,22.4,3.4,33.8c-1.5,16.8-8,32.7-16.8,47
		c-4.8,6.1-9.5,12.3-15.2,17.5c-6.2,5.1-12.6,9.9-19.6,13.8c-4.5,2.1-8.9,4.5-13.6,6.3c-8.4,1.9-16.4,5.8-25.2,5.7c-5,0-10,0.1-15,0
		c-6.9-0.2-13.4-2.4-20.2-3.3c-7.4-3.4-15.5-5.3-22.3-9.9c-13.2-7.3-23.6-18.7-32.9-30.3c-3.6-6.2-6.5-12.9-10.1-19.1
		c-1.7-7.3-4.6-14.3-5.9-21.8c-0.1-5.7-1.2-11.4-0.5-17c0.5-4.3,0.1-8.8,0.6-13.1c1.4-7.4,3.7-14.6,6.2-21.7
		c7.9-18.8,21.8-35,38.8-46.1C77.2,38.2,83.6,36.2,89.3,33.1 M128.9,58.1c-2,7.8-0.9,15.9-1.3,23.9c0,3.5-0.4,7.9,2.7,10.3
		c3.3,3.1,6.6,6.3,9.6,9.8c3.3,4,7.6,7,10.9,11c4.9,6.4,11.4,11.3,16.4,17.5c1.9,2.9,6.5,4.2,5.3,8.5c1.1-0.4,2.9-1.1,3.5,0.6
		c1.6,1.9,3.4,3.5,5.4,5c0.2,0.8,0.3,1.7,0.5,2.5c1.3,0,2.5,0.1,3.8,0.1c2.8-6.1,9-9.2,12.7-14.7c0.4-0.1,1.3-0.3,1.7-0.4
		c-2.2-3.9-5.7-6.9-8.9-10.1c-4.4-4.5-9.1-8.8-13-13.8c-10.6-10.5-20.7-21.5-31-32.3C141.1,70,135.4,63.6,128.9,58.1 M113.9,59.6
		c-1.2,2.1-2.6,4.2-4.4,5.8c-7,6.4-12.6,14.1-19.5,20.6c-6.3,5.8-11.2,12.8-17.4,18.5c-3.7,3.4-6.4,7.6-10.1,11
		c-5,4.5-8.5,10.3-13.9,14.4c0,1.4,0,2.7,0,4.1c4.6,4,8.9,8.3,13.1,12.7c1.9-0.3,4.2,0.2,5.4-1.6c7.1-8.5,14.8-16.6,22.7-24.4
		c3.9-4.1,7.2-8.8,11.3-12.7c3.9-4.1,8.2-7.9,11.7-12.3c1.7-2.1,3.7-4,5.7-5.7c-0.2-10.2,0.8-20.6-1-30.7
		C116.6,59.4,114.8,59.5,113.9,59.6 M72.1,155.9c17,15.7,33.9,31.4,50.7,47.3c-0.1-10.9-0.9-21.9-1.1-32.8
		c-5.6-5.2-11.2-10.3-16.8-15.5c5-5.9,10.6-11.2,15.7-17c-0.4-11-0.8-22-1.1-33C103.8,122,87.8,138.9,72.1,155.9 M127.5,105.3
		c-0.3,10.9-0.5,21.9-0.9,32.9c5.2,5.6,10.6,11.1,15.9,16.7c-5.7,5.2-11.1,10.7-16.7,16c-0.1,10.9-0.6,21.8-0.7,32.7
		c16.6-16.2,33.7-31.9,50.2-48.3C159.2,138.8,143.4,122,127.5,105.3z"/>
</g>
</svg>
